X:152
T:Boys of Tandernagee, The
T:Rollicking Boys around Tanderagee, The
R:jig
H:Related to "The Smuggler's Reel", reel#711
H:Originally (?) Scottish "The Hills of Glenorchy", #48
H:Related to "The Jolly Corkonian" in O'Neill's
D:Arcady
D:Tommy Keane & Jacqueline McCarthy: The Wind among the Reeds
Z:id:hn-jig-152
M:6/8
K:Edor
~B3 ~E3|~B3 d2B|~A3 DED|AFD FGA|~B3 ~E3|BAB def|edB AFA|BEE E2A:|
Bee efe|def afd|edd dcd|Bcd dBA|Bee efe|def afd|edB AFA|BEE E2A:|

